X: 30055
M: 4/4
L: 1/8
K: A
E2 |\
|: e/f/g |\
aece Acec | dBGB E2ED | C2E2 A2cd | edcd B2 e/f/g |\
aece Acec | dBGB E2f2 |fgaf edcB | A2A2A2 :|


